X: 1
T: Morpeth Rant
S: Anonymous MS (1800-1840)
M: 4/4
L: 1/8
R: rant
K: Bbmaj
(3FGA|B2FE DB,DF|GEGB AFAc|B2gf edcB|A2c2 c2dc|
B2FE DB,DF|GEGB AFAc|Bbag fedc|B2B2 B2:|
|:(3fga|bfdB BAGF|fdec BAGF|egec dfdB|A2c2 c2 (3FGA|
BEGB edcB|AFAc fedc|Bbag fedc|B2B2 B2:|
